src/icons/cloud-upload.svg

<svg width="16" height="16" viewBox="0 0 16 16" fill="none" xmlns="http://www.w3.org/2000/svg">
<path fill-rule="evenodd" clip-rule="evenodd" d="M11.9564 6H12.0063C12.8003 6 13.5617 6.31607 14.1231 6.87868C14.6845 7.44129 14.9999 8.20435 14.9999 9C14.9999 9.79565 14.6845 10.5587 14.1231 11.1213C13.5617 11.6839 12.8003 12 12.0063 12H10.0106V11H12.0063C12.5356 11 13.0432 10.7893 13.4175 10.4142C13.7918 10.0391 14.002 9.53044 14.002 9C14.002 8.46957 13.7918 7.96086 13.4175 7.58579C13.0432 7.21072 12.5356 7 12.0063 7H11.0923L10.9686 6.143C10.8937 5.60541 10.6455 5.10711 10.2617 4.72407C9.87792 4.34103 9.37968 4.09427 8.84295 4.02143C8.30621 3.94859 7.76044 4.05365 7.28883 4.3206C6.81723 4.58754 6.44567 5.00173 6.23082 5.5L5.89754 6.262L5.08929 6.073C4.90378 6.02699 4.71361 6.0025 4.52251 6C3.8609 6 3.22639 6.2634 2.75856 6.73224C2.29073 7.20108 2.02791 7.83696 2.02791 8.5C2.02791 9.16304 2.29073 9.79893 2.75856 10.2678C3.22639 10.7366 3.8609 11 4.52251 11H7.01712V12H4.52251C4.02742 12.0043 3.53708 11.903 3.08401 11.7029C2.63095 11.5028 2.22551 11.2084 1.8946 10.8394C1.56369 10.4703 1.31487 10.0349 1.16465 9.56211C1.01442 9.08932 0.966218 8.58992 1.02324 8.09704C1.08026 7.60416 1.24121 7.12906 1.49539 6.70326C1.74958 6.27745 2.0912 5.91068 2.4976 5.62727C2.904 5.34385 3.36588 5.15027 3.85261 5.05937C4.33935 4.96847 4.8398 4.98232 5.32079 5.1C5.62405 4.40501 6.14506 3.82799 6.8049 3.45635C7.46474 3.08472 8.22745 2.9387 8.97752 3.04044C9.72759 3.14217 10.4241 3.4861 10.9617 4.02014C11.4992 4.55418 11.8484 5.24923 11.9564 6ZM10.2928 9.85348L8.97879 8.53944L8.97879 13.9749H7.98493L7.98493 8.57568L6.70711 9.85347L6 9.14636L8.14644 6.99998H8.85355L10.9999 9.14637L10.2928 9.85348Z" fill="white"/>
</svg>

<svg width="16" height="16" xmlns="http://www.w3.org/2000/svg"><path fill-rule="evenodd" clip-rule="evenodd" d="M11.956 6h.05a2.99 2.99 0 0 1 2.117.879 3.003 3.003 0 0 1 0 4.242 2.99 2.99 0 0 1-2.117.879h-1.995v-1h1.995a2.002 2.002 0 0 0 0-4h-.914l-.123-.857a2.49 2.49 0 0 0-2.126-2.122A2.478 2.478 0 0 0 6.23 5.5l-.333.762-.809-.189A2.49 2.49 0 0 0 4.523 6c-.662 0-1.297.263-1.764.732A2.503 2.503 0 0 0 4.523 11h2.494v1H4.523a3.486 3.486 0 0 1-2.628-1.16 3.502 3.502 0 0 1-.4-4.137A3.497 3.497 0 0 1 3.853 5.06c.486-.09.987-.077 1.468.041a3.486 3.486 0 0 1 3.657-2.06A3.479 3.479 0 0 1 11.956 6zm-1.663 3.853L8.979 8.54v5.436h-.994v-5.4L6.707 9.854 6 9.146 8.146 7h.708L11 9.146l-.707.707z"/></svg>
